X: 13
T: The Mason's Apron
R: reel
M: 4/4
L: 1/8
K: Gmaj
(BGG)A GAG(E|DE)GA B2AG|c(AAB) ABAG|ABcd e2 (e/f/g)|
BGG`A GAG`E|DE`GA B2AG|c`Bcd efgB|ABcd e2 (e/f/g)|
BGd`G eGd`G|BG`dG B2AG|c`AeA aAeA|cAeA c2 BA|
BGd`G eGd`G|BG`dG B2AG|c`Bcd efgB|ABcd e2 (e/f/g)|]


Tune 74	Setting 74

